packages/admin/admin-icons/icons/pdf.svg

<svg xmlns="http://www.w3.org/2000/svg" width="16" height="16" viewBox="0 0 16 16"><path fill="#242424" fill-rule="evenodd" d="M3.5,0 L9.53959156,0.00156876395 L9.58987563,0.00805566941 L9.65473232,0.024543968 L9.72678591,0.0543895452 L9.75235957,0.0682646574 L9.82214364,0.117593731 L13.8535534,4.14644661 C14.147537,4.44043021 13.9728055,4.92918427 13.586032,4.99304488 L13.5,5 L9.5,5 C9.25454011,5 9.05039163,4.82312484 9.00805567,4.58987563 L9,4.5 L9,1 L3.5,1 C3.25454011,1 3.05039163,1.17687516 3.00805567,1.41012437 L3,1.5 L3,14.5 C3,14.7454599 3.17687516,14.9496084 3.41012437,14.9919443 L3.5,15 L12.5,15 C12.7454599,15 12.9496084,14.8231248 12.9919443,14.5898756 L13,14.5 L13,7 C13,6.72385763 13.2238576,6.5 13.5,6.5 C13.7454599,6.5 13.9496084,6.67687516 13.9919443,6.91012437 L14,7 L14,14.5 C14,15.2796961 13.4051119,15.9204487 12.64446,15.9931334 L12.5,16 L3.5,16 C2.72030388,16 2.07955132,15.4051119 2.00686658,14.64446 L2,14.5 L2,1.5 C2,0.720303883 2.59488808,0.0795513218 3.35553999,0.00686657806 L3.5,0 Z M5.72767247,6.02503871 C5.95579472,5.96287347 6.17451125,6.01715447 6.32344858,6.18018455 C6.55092771,6.42972747 6.6303806,6.93787352 6.5588864,7.69061814 C6.55572436,7.7253088 6.54891794,7.77050288 6.53902987,7.82761686 C7.08110494,8.34656031 8.09365368,9.27254443 9.32990317,10.1978069 C9.52490442,10.1904839 9.72245138,10.1866621 9.9185781,10.1866621 C10.5445811,10.1866621 10.9524304,10.2238116 10.9693661,10.2253617 C11.016877,10.2269653 11.5456608,10.25599 11.8296546,10.5889455 C11.96447,10.7470045 12.0209847,10.9491885 11.9930355,11.1735019 L11.9930355,11.1735019 L11.9879441,11.200335 C11.8879112,11.5928633 11.6191112,11.8180587 11.2511358,11.8180587 C10.9936709,11.8178448 10.7738021,11.7095501 10.7494705,11.6971491 L10.7494705,11.6971491 L10.7330975,11.687688 C10.2317002,11.3748039 9.71422472,11.021483 9.19420353,10.6368656 C8.1832626,10.6854807 6.78848248,10.8599763 5.67268517,11.4008887 L5.67268517,11.4008887 L5.59526885,11.6985924 C5.27558149,12.873478 4.6796446,13 4.43817748,13 C4.3830562,13 4.35170379,12.9932383 4.35170379,12.9932383 L4.35170379,12.9932383 L4.31694817,12.9839108 C4.18730463,12.9365519 4.09182718,12.8463508 4.04091301,12.7228756 C3.9293574,12.4513102 4.07791957,12.1131966 4.10903081,12.0480914 L4.10903081,12.0480914 L4.12178614,12.020991 L4.14156228,11.9984341 C4.44340288,11.6538259 4.83329819,11.3534497 5.30125295,11.1040671 C5.50048811,10.3309838 5.91115104,8.72112859 6.06799346,7.97511899 C6.00765348,7.91632126 5.95409647,7.86354528 5.90760505,7.81735231 L5.78961022,7.69908368 C5.77357142,7.68285082 5.75936968,7.66840404 5.74704032,7.65581347 L5.69581537,7.60310598 L5.69581537,7.60310598 L5.68758427,7.59451057 C5.29616153,7.1605833 5.14717061,6.78638918 5.23986119,6.47807525 C5.32384276,6.19908 5.58602391,6.06202783 5.72767247,6.02503871 Z M5.14250795,11.7019064 C4.89040244,11.8696136 4.67192708,12.0559489 4.48992235,12.258908 C4.44752961,12.3613497 4.41872291,12.5011547 4.44275975,12.5588032 C4.44388522,12.5616629 4.4449303,12.5641484 4.44718125,12.5668211 C4.53997901,12.5630527 4.89699449,12.4945266 5.14250795,11.7019064 Z M9.9185781,10.6196272 C10.2625703,10.8684218 10.611895,11.1009936 10.9533147,11.3144561 C10.9832469,11.3281132 11.114659,11.3847728 11.2511626,11.3847728 C11.3687743,11.3847728 11.4970512,11.351365 11.5637487,11.1069268 C11.5736368,11.0083604 11.5530032,10.9327252 11.4990073,10.8694641 C11.3613783,10.7080911 11.0420125,10.6610529 10.9411221,10.6573112 C10.9252851,10.6561887 10.522822,10.6196272 9.9185781,10.6196272 L9.9185781,10.6196272 Z M6.43444146,8.32961587 C6.2778938,9.02321531 6.00563701,10.1030357 5.81685265,10.8404929 L5.81685265,10.8404929 L5.81771015,10.8402256 L5.8111985,10.8650009 C6.73633566,10.4847399 7.78254134,10.312516 8.65845254,10.2387515 L8.65845254,10.2387515 L8.6430711,10.2271791 L8.6535219,10.2267247 C7.72369528,9.50308499 6.9471203,8.80734745 6.44065835,8.33164706 L6.44065835,8.33164706 L6.44009561,8.33496112 Z M6.002207,6.47147386 C5.96134169,6.42668068 5.91538496,6.42264502 5.83973723,6.4431975 C5.83845097,6.44357167 5.6882006,6.48772342 5.65491881,6.60446365 C5.63463354,6.67432604 5.62897938,6.88188204 6.00603896,7.30044173 L6.00603896,7.30044173 L6.01170898,7.30633347 L6.05615844,7.35197035 C6.07813021,7.37437293 6.10712234,7.403744 6.1427301,7.43941819 C6.1741093,6.87856799 6.0946832,6.57276632 6.002207,6.47147386 Z M10,1.707 L12.293,4 L10,4 L10,1.707 Z"/></svg>

<svg width="16" height="16" fill="none" viewBox="0 0 16 16">
  <path fill="#242424" fill-rule="evenodd" d="M9.54.003 3.5 0l-.145.007A1.5 1.5 0 0 0 2 1.5v13l.006.144A1.5 1.5 0 0 0 3.5 16.001h9l.144-.007a1.5 1.5 0 0 0 1.355-1.493v-7.5l-.008-.09a.5.5 0 0 0-.992.09v7.5l-.008.09a.5.5 0 0 1-.492.41h-9l-.09-.008A.5.5 0 0 1 3 14.5v-13l.009-.09A.5.5 0 0 1 3.501 1H9v3.5l.008.09A.5.5 0 0 0 9.5 5h4l.085-.007a.5.5 0 0 0 .268-.847L9.822.12l-.07-.05-.026-.014-.072-.03L9.59.01 9.54.003ZM10 4V1.708l2.293 2.293H10Z M9.918 10.188c.626 0 1.034.037 1.05.038.048.002.577.031.861.364.135.158.191.36.163.585l-.005.026c-.1.393-.368.618-.736.618-.258 0-.478-.109-.502-.12l-.016-.01a23.72 23.72 0 0 1-1.54-1.051c-1.01.049-2.405.223-3.52.764l-.078.298c-.32 1.175-.916 1.3-1.157 1.3a.45.45 0 0 1-.087-.007l-.035-.01a.46.46 0 0 1-.276-.26c-.111-.272.037-.61.069-.675l.012-.027.02-.023a4.07 4.07 0 0 1 1.16-.894c.199-.773.61-2.383.767-3.129a16.26 16.26 0 0 1-.38-.38c-.392-.434-.541-.809-.449-1.117.084-.279.347-.416.488-.453a.575.575 0 0 1 .596.155c.227.25.307.758.235 1.51-.003.035-.01.08-.02.138a31.189 31.189 0 0 0 2.791 2.37c.195-.008.393-.011.59-.011Zm1.333 1.198c.117 0 .246-.034.312-.278a.298.298 0 0 0-.065-.238c-.137-.16-.457-.208-.557-.212h-.007a12.51 12.51 0 0 0-1.016-.037H9.91c.352.248.701.481 1.043.694.03.014.161.07.298.07Zm-5.434-.545-.006.025c.925-.38 1.971-.553 2.847-.626l-.015-.012h.01A32.014 32.014 0 0 1 6.44 8.333v.003l-.006-.005c-.157.693-.428 1.773-.617 2.51Zm-.163-4.236c-.02.07-.026.278.352.696 0 0 .047.05.136.14.032-.561-.048-.867-.14-.969-.041-.044-.087-.048-.163-.028 0 0-.151.045-.185.161ZM4.442 12.56a.027.027 0 0 0 .005.008c.092-.004.45-.072.695-.865a3.45 3.45 0 0 0-.653.557c-.042.102-.07.242-.047.3Z" clip-rule="evenodd"/>
</svg>
